src/assets/icons/remotes/yandex.svg

<svg width="24" height="24" viewBox="0 0 24 24" fill="none" xmlns="http://www.w3.org/2000/svg">
    <path
        d="M20.9946 8.48123C20.2392 7.64799 18.2753 7.17346 16.945 7.08994C16.3527 7.05164 15.7664 6.94853 15.1966 6.78246C14.9367 6.70826 14.6805 6.6214 14.4291 6.5222C13.3106 6.07834 11.4653 5.65143 9.47401 6.46652C9.41066 6.49436 9.34892 6.51615 9.29122 6.54641C9.22989 6.5686 9.16775 6.60008 9.1044 6.62792C7.15706 7.5342 6.21366 9.1793 5.77948 10.3023C5.68155 10.5542 5.57126 10.8012 5.44901 11.0423C5.18559 11.5727 4.86447 12.0725 4.49148 12.5325C3.64734 13.5614 2.67005 15.3477 2.76285 16.4663"
        stroke="currentColor" />
    <path
        d="M21.1233 8.67878C21.9727 10.5805 18.5332 13.926 13.4756 16.1364C8.41803 18.3469 3.49118 18.6503 2.80724 16.6832C2.32141 15.2862 5.55675 11.5566 10.6143 9.34659C15.6719 7.13657 20.5491 7.3932 21.1233 8.67878Z"
        stroke="currentColor" />
    <path
        d="M7.64773 14.8561C7.29224 14.0427 9.06445 12.4831 11.6066 11.3718C14.1487 10.2606 16.4971 10.0201 16.8526 10.8336C17.2081 11.647 15.4358 13.2062 12.8937 14.3178C10.3516 15.4291 8.00322 15.6696 7.64773 14.8561Z"
        stroke="currentColor" />
</svg>

<svg xmlns="http://www.w3.org/2000/svg" width="24" height="24" fill="none" viewBox="0 0 24 24"><path stroke="currentColor" d="M20.995 8.481c-.756-.833-2.72-1.308-4.05-1.391a8 8 0 0 1-1.748-.308 8 8 0 0 1-.768-.26c-1.118-.444-2.964-.87-4.955-.055-.063.027-.125.05-.183.08-.061.022-.123.053-.187.08-1.947.907-2.89 2.552-3.325 3.675a8 8 0 0 1-.33.74 8 8 0 0 1-.958 1.49c-.844 1.03-1.82 2.816-1.728 3.934"/><path stroke="currentColor" d="M21.123 8.679c.85 1.902-2.59 5.247-7.647 7.457s-9.985 2.514-10.669.547c-.486-1.397 2.75-5.126 7.807-7.336s9.935-1.954 10.51-.668Z"/><path stroke="currentColor" d="M7.648 14.856c-.356-.813 1.416-2.373 3.959-3.484 2.542-1.111 4.89-1.352 5.246-.538.355.813-1.417 2.372-3.96 3.484-2.541 1.111-4.89 1.352-5.245.538Z"/></svg>
